X: 41311
T: Tune The Flute
R: reel
M: 4/4
K: Gminor
GDGA Bd (3ddd|gabg ageg|dgeg dgdB|c2 (3dcB cA (3AAA|
~G3 A Bd^cd|g2 (3bag ag e2|dgeg dgdB|cBAd ~G3:|
g^fge d ~B3|dBAd BAAB|dgeg dgdB|dega baa^f|
~g3 e d2 (3BAG|dBAd BA (3AAA|e ~g3 d ~ g3|cBAd BGG:|

